images/50282895.svg

<?xml version="1.0" encoding="UTF-8"?>
<svg xmlns="http://www.w3.org/2000/svg" xmlns:xlink="http://www.w3.org/1999/xlink" width="300pt" height="300pt" viewBox="0 0 300 300" version="1.1">
<defs>
<g>
<symbol overflow="visible" id="glyph0-0">
<path style="stroke:none;" d="M 0.453125 1.59375 L 0.453125 -6.34375 L 4.953125 -6.34375 L 4.953125 1.59375 Z M 0.953125 1.09375 L 4.453125 1.09375 L 4.453125 -5.84375 L 0.953125 -5.84375 Z M 0.953125 1.09375 "/>
</symbol>
<symbol overflow="visible" id="glyph0-1">
<path style="stroke:none;" d="M 3.546875 -5.953125 C 2.898438 -5.953125 2.382812 -5.710938 2 -5.234375 C 1.625 -4.753906 1.4375 -4.101562 1.4375 -3.28125 C 1.4375 -2.445312 1.625 -1.789062 2 -1.3125 C 2.382812 -0.832031 2.898438 -0.59375 3.546875 -0.59375 C 4.191406 -0.59375 4.703125 -0.832031 5.078125 -1.3125 C 5.453125 -1.789062 5.640625 -2.445312 5.640625 -3.28125 C 5.640625 -4.101562 5.453125 -4.753906 5.078125 -5.234375 C 4.703125 -5.710938 4.191406 -5.953125 3.546875 -5.953125 Z M 3.546875 -6.6875 C 4.460938 -6.6875 5.195312 -6.375 5.75 -5.75 C 6.300781 -5.132812 6.578125 -4.3125 6.578125 -3.28125 C 6.578125 -2.238281 6.300781 -1.410156 5.75 -0.796875 C 5.195312 -0.179688 4.460938 0.125 3.546875 0.125 C 2.617188 0.125 1.878906 -0.179688 1.328125 -0.796875 C 0.773438 -1.410156 0.5 -2.238281 0.5 -3.28125 C 0.5 -4.3125 0.773438 -5.132812 1.328125 -5.75 C 1.878906 -6.375 2.617188 -6.6875 3.546875 -6.6875 Z M 3.546875 -6.6875 "/>
</symbol>
<symbol overflow="visible" id="glyph0-2">
<path style="stroke:none;" d="M 0.890625 -6.5625 L 2.078125 -6.5625 L 4.984375 -1.078125 L 4.984375 -6.5625 L 5.84375 -6.5625 L 5.84375 0 L 4.65625 0 L 1.75 -5.484375 L 1.75 0 L 0.890625 0 Z M 0.890625 -6.5625 "/>
</symbol>
<symbol overflow="visible" id="glyph0-3">
<path style="stroke:none;" d="M 0.890625 -6.5625 L 1.765625 -6.5625 L 1.765625 -3.875 L 5 -3.875 L 5 -6.5625 L 5.890625 -6.5625 L 5.890625 0 L 5 0 L 5 -3.125 L 1.765625 -3.125 L 1.765625 0 L 0.890625 0 Z M 0.890625 -6.5625 "/>
</symbol>
</g>
</defs>
<g id="surface20093">
<rect x="0" y="0" width="300" height="300" style="fill:rgb(100%,100%,100%);fill-opacity:1;stroke:none;"/>
<path style="fill:none;stroke-width:1.2;stroke-linecap:butt;stroke-linejoin:miter;stroke:rgb(100%,0%,0%);stroke-opacity:1;stroke-miterlimit:10;" d="M 42.605469 143.628906 L 43.832031 131.90625 "/>
<path style="fill:none;stroke-width:1.2;stroke-linecap:butt;stroke-linejoin:miter;stroke:rgb(0%,0%,0%);stroke-opacity:1;stroke-miterlimit:10;" d="M 43.832031 131.90625 L 45.058594 120.179688 "/>
<path style="fill:none;stroke-width:1.2;stroke-linecap:butt;stroke-linejoin:miter;stroke:rgb(100%,0%,0%);stroke-opacity:1;stroke-miterlimit:10;" d="M 42.605469 143.628906 L 52.148438 150.550781 "/>
<path style="fill:none;stroke-width:1.2;stroke-linecap:butt;stroke-linejoin:miter;stroke:rgb(0%,0%,0%);stroke-opacity:1;stroke-miterlimit:10;" d="M 52.148438 150.550781 L 61.6875 157.476562 "/>
<path style=" stroke:none;fill-rule:nonzero;fill:rgb(100%,100%,100%);fill-opacity:1;" d="M 38.605469 138.128906 L 46.605469 138.128906 L 46.605469 149.128906 L 38.605469 149.128906 Z M 38.605469 138.128906 "/>
<g style="fill:rgb(100%,0%,0%);fill-opacity:1;">
  <use xlink:href="#glyph0-1" x="38.605469" y="146.791992"/>
</g>
<path style="fill:none;stroke-width:1.2;stroke-linecap:butt;stroke-linejoin:miter;stroke:rgb(0%,0%,0%);stroke-opacity:1;stroke-miterlimit:10;" d="M 61.6875 157.476562 L 83.21875 147.875 "/>
<path style="fill:none;stroke-width:1.2;stroke-linecap:butt;stroke-linejoin:miter;stroke:rgb(0%,0%,0%);stroke-opacity:1;stroke-miterlimit:10;" d="M 66.097656 161.582031 L 83.324219 153.902344 "/>
<path style="fill:none;stroke-width:1.2;stroke-linecap:butt;stroke-linejoin:miter;stroke:rgb(0%,0%,0%);stroke-opacity:1;stroke-miterlimit:10;" d="M 59.234375 180.921875 L 61.6875 157.476562 "/>
<path style="fill:none;stroke-width:1.2;stroke-linecap:butt;stroke-linejoin:miter;stroke:rgb(0%,0%,0%);stroke-opacity:1;stroke-miterlimit:10;" d="M 83.21875 147.875 L 102.300781 161.722656 "/>
<path style="fill:none;stroke-width:1.2;stroke-linecap:butt;stroke-linejoin:miter;stroke:rgb(0%,0%,0%);stroke-opacity:1;stroke-miterlimit:10;" d="M 102.300781 161.722656 L 99.847656 185.171875 "/>
<path style="fill:none;stroke-width:1.2;stroke-linecap:butt;stroke-linejoin:miter;stroke:rgb(0%,0%,0%);stroke-opacity:1;stroke-miterlimit:10;" d="M 107.570312 164.644531 L 105.609375 183.402344 "/>
<path style="fill:none;stroke-width:1.2;stroke-linecap:butt;stroke-linejoin:miter;stroke:rgb(0%,0%,0%);stroke-opacity:1;stroke-miterlimit:10;" d="M 123.832031 152.125 L 102.300781 161.722656 "/>
<path style="fill:none;stroke-width:1.2;stroke-linecap:butt;stroke-linejoin:miter;stroke:rgb(0%,0%,0%);stroke-opacity:1;stroke-miterlimit:10;" d="M 99.847656 185.171875 L 109.386719 192.09375 "/>
<path style="fill:none;stroke-width:1.2;stroke-linecap:butt;stroke-linejoin:miter;stroke:rgb(0%,0%,100%);stroke-opacity:1;stroke-miterlimit:10;" d="M 109.386719 192.09375 L 118.925781 199.019531 "/>
<path style="fill:none;stroke-width:1.2;stroke-linecap:butt;stroke-linejoin:miter;stroke:rgb(0%,0%,0%);stroke-opacity:1;stroke-miterlimit:10;" d="M 99.847656 185.171875 L 78.316406 194.769531 "/>
<path style="fill:none;stroke-width:1.2;stroke-linecap:butt;stroke-linejoin:miter;stroke:rgb(0%,0%,100%);stroke-opacity:1;stroke-miterlimit:10;" d="M 118.925781 199.019531 L 129.695312 194.21875 "/>
<path style="fill:none;stroke-width:1.2;stroke-linecap:butt;stroke-linejoin:miter;stroke:rgb(0%,0%,0%);stroke-opacity:1;stroke-miterlimit:10;" d="M 129.695312 194.21875 L 140.460938 189.417969 "/>
<path style="fill:none;stroke-width:1.2;stroke-linecap:butt;stroke-linejoin:miter;stroke:rgb(0%,0%,100%);stroke-opacity:1;stroke-miterlimit:10;" d="M 118.820312 192.992188 L 127.433594 189.152344 "/>
<path style="fill:none;stroke-width:1.2;stroke-linecap:butt;stroke-linejoin:miter;stroke:rgb(0%,0%,0%);stroke-opacity:1;stroke-miterlimit:10;" d="M 127.433594 189.152344 L 136.046875 185.3125 "/>
<path style=" stroke:none;fill-rule:nonzero;fill:rgb(100%,100%,100%);fill-opacity:1;" d="M 115.925781 193.519531 L 122.925781 193.519531 L 122.925781 204.519531 L 115.925781 204.519531 Z M 115.925781 193.519531 "/>
<g style="fill:rgb(0%,0%,100%);fill-opacity:1;">
  <use xlink:href="#glyph0-2" x="115.925781" y="202.182617"/>
</g>
<path style="fill:none;stroke-width:1.2;stroke-linecap:butt;stroke-linejoin:miter;stroke:rgb(0%,0%,0%);stroke-opacity:1;stroke-miterlimit:10;" d="M 140.460938 189.417969 L 141.6875 177.695312 "/>
<path style="fill:none;stroke-width:1.2;stroke-linecap:butt;stroke-linejoin:miter;stroke:rgb(0%,0%,100%);stroke-opacity:1;stroke-miterlimit:10;" d="M 141.6875 177.695312 L 142.914062 165.972656 "/>
<path style="fill:none;stroke-width:1.2;stroke-linecap:butt;stroke-linejoin:miter;stroke:rgb(0%,0%,100%);stroke-opacity:1;stroke-miterlimit:10;" d="M 142.914062 165.972656 L 133.371094 159.046875 "/>
<path style="fill:none;stroke-width:1.2;stroke-linecap:butt;stroke-linejoin:miter;stroke:rgb(0%,0%,0%);stroke-opacity:1;stroke-miterlimit:10;" d="M 133.371094 159.046875 L 123.832031 152.125 "/>
<path style="fill:none;stroke-width:1.2;stroke-linecap:butt;stroke-linejoin:miter;stroke:rgb(0%,0%,100%);stroke-opacity:1;stroke-miterlimit:10;" d="M 137.746094 169.078125 L 130.113281 163.539062 "/>
<path style="fill:none;stroke-width:1.2;stroke-linecap:butt;stroke-linejoin:miter;stroke:rgb(0%,0%,0%);stroke-opacity:1;stroke-miterlimit:10;" d="M 130.113281 163.539062 L 122.480469 157.996094 "/>
<path style=" stroke:none;fill-rule:nonzero;fill:rgb(100%,100%,100%);fill-opacity:1;" d="M 139.914062 160.472656 L 146.914062 160.472656 L 146.914062 171.472656 L 139.914062 171.472656 Z M 139.914062 160.472656 "/>
<g style="fill:rgb(0%,0%,100%);fill-opacity:1;">
  <use xlink:href="#glyph0-2" x="139.914062" y="169.135742"/>
</g>
<path style="fill:none;stroke-width:1.2;stroke-linecap:butt;stroke-linejoin:miter;stroke:rgb(0%,0%,0%);stroke-opacity:1;stroke-miterlimit:10;" d="M 123.832031 152.125 L 125.058594 140.398438 "/>
<path style="fill:none;stroke-width:1.2;stroke-linecap:butt;stroke-linejoin:miter;stroke:rgb(0%,0%,100%);stroke-opacity:1;stroke-miterlimit:10;" d="M 125.058594 140.398438 L 126.285156 128.675781 "/>
<path style="fill:none;stroke-width:1.2;stroke-linecap:butt;stroke-linejoin:miter;stroke:rgb(0%,0%,100%);stroke-opacity:1;stroke-miterlimit:10;" d="M 126.285156 128.675781 L 137.050781 123.875 "/>
<path style="fill:none;stroke-width:1.2;stroke-linecap:butt;stroke-linejoin:miter;stroke:rgb(0%,0%,0%);stroke-opacity:1;stroke-miterlimit:10;" d="M 137.050781 123.875 L 147.816406 119.078125 "/>
<path style=" stroke:none;fill-rule:nonzero;fill:rgb(100%,100%,100%);fill-opacity:1;" d="M 119.285156 123.175781 L 133.285156 123.175781 L 133.285156 134.175781 L 119.285156 134.175781 Z M 119.285156 123.175781 "/>
<g style="fill:rgb(0%,0%,100%);fill-opacity:1;">
  <use xlink:href="#glyph0-2" x="119.285156" y="131.838867"/>
  <use xlink:href="#glyph0-3" x="126.262695" y="131.838867"/>
</g>
<path style="fill:none;stroke-width:1.2;stroke-linecap:butt;stroke-linejoin:miter;stroke:rgb(0%,0%,0%);stroke-opacity:1;stroke-miterlimit:10;" d="M 147.816406 119.078125 L 166.898438 132.925781 "/>
<path style="fill:none;stroke-width:1.2;stroke-linecap:butt;stroke-linejoin:miter;stroke:rgb(0%,0%,0%);stroke-opacity:1;stroke-miterlimit:10;" d="M 152.984375 115.972656 L 168.246094 127.050781 "/>
<path style="fill:none;stroke-width:1.2;stroke-linecap:butt;stroke-linejoin:miter;stroke:rgb(0%,0%,0%);stroke-opacity:1;stroke-miterlimit:10;" d="M 150.269531 95.628906 L 147.816406 119.078125 "/>
<path style="fill:none;stroke-width:1.2;stroke-linecap:butt;stroke-linejoin:miter;stroke:rgb(0%,0%,0%);stroke-opacity:1;stroke-miterlimit:10;" d="M 166.898438 132.925781 L 188.429688 123.324219 "/>
<path style="fill:none;stroke-width:1.2;stroke-linecap:butt;stroke-linejoin:miter;stroke:rgb(0%,0%,0%);stroke-opacity:1;stroke-miterlimit:10;" d="M 188.429688 123.324219 L 197.96875 130.246094 "/>
<path style="fill:none;stroke-width:1.2;stroke-linecap:butt;stroke-linejoin:miter;stroke:rgb(0%,0%,100%);stroke-opacity:1;stroke-miterlimit:10;" d="M 197.96875 130.246094 L 207.511719 137.171875 "/>
<path style="fill:none;stroke-width:1.2;stroke-linecap:butt;stroke-linejoin:miter;stroke:rgb(0%,0%,0%);stroke-opacity:1;stroke-miterlimit:10;" d="M 188.429688 123.324219 L 190.882812 99.875 "/>
<path style="fill:none;stroke-width:1.2;stroke-linecap:butt;stroke-linejoin:miter;stroke:rgb(0%,0%,0%);stroke-opacity:1;stroke-miterlimit:10;" d="M 183.15625 120.402344 L 185.121094 101.644531 "/>
<path style="fill:none;stroke-width:1.2;stroke-linecap:butt;stroke-linejoin:miter;stroke:rgb(0%,0%,100%);stroke-opacity:1;stroke-miterlimit:10;" d="M 207.511719 137.171875 L 206.285156 148.894531 "/>
<path style="fill:none;stroke-width:1.2;stroke-linecap:butt;stroke-linejoin:miter;stroke:rgb(0%,0%,0%);stroke-opacity:1;stroke-miterlimit:10;" d="M 206.285156 148.894531 L 205.058594 160.621094 "/>
<path style=" stroke:none;fill-rule:nonzero;fill:rgb(100%,100%,100%);fill-opacity:1;" d="M 200.511719 131.671875 L 214.511719 131.671875 L 214.511719 142.671875 L 200.511719 142.671875 Z M 200.511719 131.671875 "/>
<g style="fill:rgb(0%,0%,100%);fill-opacity:1;">
  <use xlink:href="#glyph0-2" x="200.511719" y="140.334961"/>
  <use xlink:href="#glyph0-3" x="207.489258" y="140.334961"/>
</g>
<path style="fill:none;stroke-width:1.2;stroke-linecap:butt;stroke-linejoin:miter;stroke:rgb(0%,0%,0%);stroke-opacity:1;stroke-miterlimit:10;" d="M 203.929688 158.085938 L 193.160156 162.886719 "/>
<path style="fill:none;stroke-width:1.2;stroke-linecap:butt;stroke-linejoin:miter;stroke:rgb(100%,0%,0%);stroke-opacity:1;stroke-miterlimit:10;" d="M 193.160156 162.886719 L 182.394531 167.6875 "/>
<path style="fill:none;stroke-width:1.2;stroke-linecap:butt;stroke-linejoin:miter;stroke:rgb(0%,0%,0%);stroke-opacity:1;stroke-miterlimit:10;" d="M 206.1875 163.152344 L 195.421875 167.953125 "/>
<path style="fill:none;stroke-width:1.2;stroke-linecap:butt;stroke-linejoin:miter;stroke:rgb(100%,0%,0%);stroke-opacity:1;stroke-miterlimit:10;" d="M 195.421875 167.953125 L 184.65625 172.753906 "/>
<path style="fill:none;stroke-width:1.2;stroke-linecap:butt;stroke-linejoin:miter;stroke:rgb(0%,0%,0%);stroke-opacity:1;stroke-miterlimit:10;" d="M 205.058594 160.621094 L 224.136719 174.46875 "/>
<path style=" stroke:none;fill-rule:nonzero;fill:rgb(100%,100%,100%);fill-opacity:1;" d="M 175.523438 164.71875 L 183.523438 164.71875 L 183.523438 175.71875 L 175.523438 175.71875 Z M 175.523438 164.71875 "/>
<g style="fill:rgb(100%,0%,0%);fill-opacity:1;">
  <use xlink:href="#glyph0-1" x="175.523438" y="173.381836"/>
</g>
<path style="fill:none;stroke-width:1.2;stroke-linecap:butt;stroke-linejoin:miter;stroke:rgb(0%,0%,0%);stroke-opacity:1;stroke-miterlimit:10;" d="M 224.136719 174.46875 L 221.683594 197.914062 "/>
<path style="fill:none;stroke-width:1.2;stroke-linecap:butt;stroke-linejoin:miter;stroke:rgb(0%,0%,0%);stroke-opacity:1;stroke-miterlimit:10;" d="M 229.410156 177.390625 L 227.449219 196.148438 "/>
<path style="fill:none;stroke-width:1.2;stroke-linecap:butt;stroke-linejoin:miter;stroke:rgb(0%,0%,0%);stroke-opacity:1;stroke-miterlimit:10;" d="M 245.671875 164.867188 L 224.136719 174.46875 "/>
<path style="fill:none;stroke-width:1.2;stroke-linecap:butt;stroke-linejoin:miter;stroke:rgb(0%,0%,0%);stroke-opacity:1;stroke-miterlimit:10;" d="M 221.683594 197.914062 L 240.765625 211.761719 "/>
<path style="fill:none;stroke-width:1.2;stroke-linecap:butt;stroke-linejoin:miter;stroke:rgb(0%,0%,0%);stroke-opacity:1;stroke-miterlimit:10;" d="M 240.765625 211.761719 L 262.296875 202.164062 "/>
<path style="fill:none;stroke-width:1.2;stroke-linecap:butt;stroke-linejoin:miter;stroke:rgb(0%,0%,0%);stroke-opacity:1;stroke-miterlimit:10;" d="M 240.660156 205.734375 L 257.886719 198.054688 "/>
<path style="fill:none;stroke-width:1.2;stroke-linecap:butt;stroke-linejoin:miter;stroke:rgb(0%,0%,0%);stroke-opacity:1;stroke-miterlimit:10;" d="M 262.296875 202.164062 L 264.75 178.714844 "/>
<path style="fill:none;stroke-width:1.2;stroke-linecap:butt;stroke-linejoin:miter;stroke:rgb(0%,0%,0%);stroke-opacity:1;stroke-miterlimit:10;" d="M 264.75 178.714844 L 245.671875 164.867188 "/>
<path style="fill:none;stroke-width:1.2;stroke-linecap:butt;stroke-linejoin:miter;stroke:rgb(0%,0%,0%);stroke-opacity:1;stroke-miterlimit:10;" d="M 259.582031 181.820312 L 244.320312 170.742188 "/>
<path style="fill:none;stroke-width:1.2;stroke-linecap:butt;stroke-linejoin:miter;stroke:rgb(0%,0%,0%);stroke-opacity:1;stroke-miterlimit:10;" d="M 190.882812 99.875 L 171.800781 86.027344 "/>
<path style="fill:none;stroke-width:1.2;stroke-linecap:butt;stroke-linejoin:miter;stroke:rgb(0%,0%,0%);stroke-opacity:1;stroke-miterlimit:10;" d="M 171.800781 86.027344 L 150.269531 95.628906 "/>
<path style="fill:none;stroke-width:1.2;stroke-linecap:butt;stroke-linejoin:miter;stroke:rgb(0%,0%,0%);stroke-opacity:1;stroke-miterlimit:10;" d="M 171.90625 92.054688 L 154.683594 99.734375 "/>
<path style="fill:none;stroke-width:1.2;stroke-linecap:butt;stroke-linejoin:miter;stroke:rgb(0%,0%,0%);stroke-opacity:1;stroke-miterlimit:10;" d="M 78.316406 194.769531 L 59.234375 180.921875 "/>
<path style="fill:none;stroke-width:1.2;stroke-linecap:butt;stroke-linejoin:miter;stroke:rgb(0%,0%,0%);stroke-opacity:1;stroke-miterlimit:10;" d="M 79.664062 188.898438 L 64.402344 177.820312 "/>
<path style="fill:none;stroke-width:1.2;stroke-linecap:butt;stroke-linejoin:miter;stroke:rgb(0%,0%,0%);stroke-opacity:1;stroke-miterlimit:10;" d="M 59.234375 180.921875 L 48.46875 185.722656 "/>
<path style="fill:none;stroke-width:1.2;stroke-linecap:butt;stroke-linejoin:miter;stroke:rgb(100%,0%,0%);stroke-opacity:1;stroke-miterlimit:10;" d="M 48.46875 185.722656 L 37.703125 190.523438 "/>
<path style="fill:none;stroke-width:1.2;stroke-linecap:butt;stroke-linejoin:miter;stroke:rgb(100%,0%,0%);stroke-opacity:1;stroke-miterlimit:10;" d="M 37.703125 190.523438 L 36.476562 202.246094 "/>
<path style="fill:none;stroke-width:1.2;stroke-linecap:butt;stroke-linejoin:miter;stroke:rgb(0%,0%,0%);stroke-opacity:1;stroke-miterlimit:10;" d="M 36.476562 202.246094 L 35.25 213.972656 "/>
<path style=" stroke:none;fill-rule:nonzero;fill:rgb(100%,100%,100%);fill-opacity:1;" d="M 33.703125 185.023438 L 41.703125 185.023438 L 41.703125 196.023438 L 33.703125 196.023438 Z M 33.703125 185.023438 "/>
<g style="fill:rgb(100%,0%,0%);fill-opacity:1;">
  <use xlink:href="#glyph0-1" x="33.703125" y="193.686523"/>
</g>
</g>
</svg>

<svg xmlns="http://www.w3.org/2000/svg" xmlns:xlink="http://www.w3.org/1999/xlink" width="300pt" height="300pt" viewBox="0 0 300 300"><defs><symbol overflow="visible"><path d="M.453 1.594v-7.938h4.5v7.938zm.5-.5h3.5v-6.938h-3.5zm0 0"/></symbol><symbol overflow="visible" id="a"><path d="M3.547-5.953c-.65 0-1.164.242-1.547.72-.375.48-.563 1.13-.563 1.952 0 .835.188 1.49.563 1.967.383.48.898.72 1.547.72.644 0 1.156-.24 1.53-.72.376-.476.564-1.132.564-1.968 0-.822-.187-1.474-.562-1.954-.375-.477-.887-.72-1.53-.72zm0-.734c.914 0 1.648.312 2.203.937.55.617.828 1.438.828 2.47 0 1.042-.277 1.87-.828 2.483-.555.617-1.29.922-2.203.922-.93 0-1.668-.305-2.22-.922C.774-1.41.5-2.237.5-3.28c0-1.033.273-1.853.828-2.47.55-.625 1.29-.938 2.22-.938zm0 0"/></symbol><symbol overflow="visible" id="b"><path d="M.89-6.563H2.08l2.906 5.485v-5.484h.86V0H4.656L1.75-5.484V0H.89zm0 0"/></symbol><symbol overflow="visible" id="c"><path d="M.89-6.563h.876v2.688H5v-2.688h.89V0H5v-3.125H1.766V0H.89zm0 0"/></symbol></defs><g><path fill="#fff" d="M0 0h300v300H0z"/><path d="M42.605 143.63l1.227-11.724" stroke-width="1.2" stroke="#f00" stroke-miterlimit="10" fill="none"/><path d="M43.832 131.906l1.227-11.726" stroke-width="1.2" stroke="#000" stroke-miterlimit="10" fill="none"/><path d="M42.605 143.63l9.543 6.92" stroke-width="1.2" stroke="#f00" stroke-miterlimit="10" fill="none"/><path d="M52.148 150.55l9.54 6.927" stroke-width="1.2" stroke="#000" stroke-miterlimit="10" fill="none"/><path d="M38.605 138.13h8v11h-8zm0 0" fill="#fff"/><use xlink:href="#a" x="38.605" y="146.792" fill="#f00"/><path d="M61.688 157.477l21.53-9.602M66.098 161.582l17.226-7.68M59.234 180.922l2.453-23.445M83.22 147.875l19.08 13.848M102.3 161.723l-2.452 23.45M107.57 164.645l-1.96 18.757M123.832 152.125l-21.53 9.598M99.848 185.172l9.54 6.922" stroke-width="1.2" stroke="#000" stroke-miterlimit="10" fill="none"/><path d="M109.387 192.094l9.54 6.926" stroke-width="1.2" stroke="#00f" stroke-miterlimit="10" fill="none"/><path d="M99.848 185.172l-21.532 9.598" stroke-width="1.2" stroke="#000" stroke-miterlimit="10" fill="none"/><path d="M118.926 199.02l10.77-4.8" stroke-width="1.2" stroke="#00f" stroke-miterlimit="10" fill="none"/><path d="M129.695 194.22l10.766-4.802" stroke-width="1.2" stroke="#000" stroke-miterlimit="10" fill="none"/><path d="M118.82 192.992l8.614-3.84" stroke-width="1.2" stroke="#00f" stroke-miterlimit="10" fill="none"/><path d="M127.434 189.152l8.613-3.84" stroke-width="1.2" stroke="#000" stroke-miterlimit="10" fill="none"/><path d="M115.926 193.52h7v11h-7zm0 0" fill="#fff"/><use xlink:href="#b" x="115.926" y="202.183" fill="#00f"/><path d="M140.46 189.418l1.227-11.723" stroke-width="1.2" stroke="#000" stroke-miterlimit="10" fill="none"/><path d="M141.688 177.695l1.226-11.722M142.914 165.973l-9.543-6.926" stroke-width="1.2" stroke="#00f" stroke-miterlimit="10" fill="none"/><path d="M133.37 159.047l-9.538-6.922" stroke-width="1.2" stroke="#000" stroke-miterlimit="10" fill="none"/><path d="M137.746 169.078l-7.633-5.54" stroke-width="1.2" stroke="#00f" stroke-miterlimit="10" fill="none"/><path d="M130.113 163.54l-7.633-5.544" stroke-width="1.2" stroke="#000" stroke-miterlimit="10" fill="none"/><path d="M139.914 160.473h7v11h-7zm0 0" fill="#fff"/><use xlink:href="#b" x="139.914" y="169.136" fill="#00f"/><path d="M123.832 152.125l1.227-11.727" stroke-width="1.2" stroke="#000" stroke-miterlimit="10" fill="none"/><path d="M125.06 140.398l1.225-11.722M126.285 128.676l10.766-4.8" stroke-width="1.2" stroke="#00f" stroke-miterlimit="10" fill="none"/><path d="M137.05 123.875l10.766-4.797" stroke-width="1.2" stroke="#000" stroke-miterlimit="10" fill="none"/><path d="M119.285 123.176h14v11h-14zm0 0" fill="#fff"/><g fill="#00f"><use xlink:href="#b" x="119.285" y="131.839"/><use xlink:href="#c" x="126.263" y="131.839"/></g><path d="M147.816 119.078l19.082 13.848M152.984 115.973l15.262 11.078M150.27 95.63l-2.454 23.448M166.898 132.926l21.532-9.602M188.43 123.324l9.54 6.922" stroke-width="1.2" stroke="#000" stroke-miterlimit="10" fill="none"/><path d="M197.97 130.246l9.542 6.926" stroke-width="1.2" stroke="#00f" stroke-miterlimit="10" fill="none"/><path d="M188.43 123.324l2.453-23.45M183.156 120.402l1.965-18.757" stroke-width="1.2" stroke="#000" stroke-miterlimit="10" fill="none"/><path d="M207.512 137.172l-1.227 11.723" stroke-width="1.2" stroke="#00f" stroke-miterlimit="10" fill="none"/><path d="M206.285 148.895l-1.226 11.726" stroke-width="1.2" stroke="#000" stroke-miterlimit="10" fill="none"/><path d="M200.512 131.672h14v11h-14zm0 0" fill="#fff"/><g fill="#00f"><use xlink:href="#b" x="200.512" y="140.335"/><use xlink:href="#c" x="207.489" y="140.335"/></g><path d="M203.93 158.086l-10.77 4.8" stroke-width="1.2" stroke="#000" stroke-miterlimit="10" fill="none"/><path d="M193.16 162.887l-10.765 4.8" stroke-width="1.2" stroke="#f00" stroke-miterlimit="10" fill="none"/><path d="M206.188 163.152l-10.766 4.8" stroke-width="1.2" stroke="#000" stroke-miterlimit="10" fill="none"/><path d="M195.422 167.953l-10.766 4.8" stroke-width="1.2" stroke="#f00" stroke-miterlimit="10" fill="none"/><path d="M205.06 160.62l19.077 13.85" stroke-width="1.2" stroke="#000" stroke-miterlimit="10" fill="none"/><path d="M175.523 164.72h8v11h-8zm0 0" fill="#fff"/><use xlink:href="#a" x="175.523" y="173.382" fill="#f00"/><path d="M224.137 174.47l-2.453 23.444M229.41 177.39l-1.96 18.758M245.672 164.867l-21.535 9.602M221.684 197.914l19.082 13.848M240.766 211.762l21.53-9.598M240.66 205.734l17.227-7.68M262.297 202.164l2.453-23.45M264.75 178.715l-19.078-13.848M259.582 181.82l-15.262-11.078M190.883 99.875L171.8 86.027M171.8 86.027l-21.53 9.602M171.906 92.055l-17.222 7.68M78.316 194.77l-19.082-13.848M79.664 188.898L64.402 177.82M59.234 180.922l-10.765 4.8" stroke-width="1.2" stroke="#000" stroke-miterlimit="10" fill="none"/><path d="M48.47 185.723l-10.767 4.8M37.703 190.523l-1.226 11.723" stroke-width="1.2" stroke="#f00" stroke-miterlimit="10" fill="none"/><path d="M36.477 202.246l-1.227 11.727" stroke-width="1.2" stroke="#000" stroke-miterlimit="10" fill="none"/><path d="M33.703 185.023h8v11h-8zm0 0" fill="#fff"/><use xlink:href="#a" x="33.703" y="193.687" fill="#f00"/></g></svg>
